X: 1
T: Krivo Ihtimansko horo    [Dm]
O: Bulgaria-\vSopluk
S: https://hjj.home.xs4all.nl/Bladmuziek/Fakebook_Bulgarian_Music.pdf
Z: 2017 John Chambers <jc:trillian.mit.edu>
M: 8/16
L: 1/16
K: Dm
|: "Dm"c2 d2e f3 |[M:9/16] g2 a2g fe dc |[M:8/16] "C"e2 f2e f2e | "Dm"c2 d3 d3 :|
[M:13/16]\
|: "C"e2 f2e f2e c2 "Dm"d2c |[M:8/16] "C"e2 f2e fgc | "Dm"d2 d3 d3 :|
[M:13/16]\
|: "Gm"[g2d2] "Dm"[a2d2][gd] [a2d2][gd] [fd][ed] [d2d2][cd] |\
   "Gm"[g2d2] "Dm"[a2d2][gd] [a2d2][gd] [fd][ed] [d2d2][cd] |
   "C"[e2c2] [f2c2][ec] [fc][gc][cc] "Dm"[d2d2] [d2d2][cc] |\
[M:8/16]\
   "C"[e2c2] [f2c2][ec] [fc][gc][cc] | "Dm"[d2d2] [d3d3] [d3d3] :|

%%sep 1 0 500
%%sep 1 0 500


